PortableApps/LibreOfficePortable/App/libreoffice/help/media/icon-themes/cmd/sc_insertrowsbefore.svg

<svg viewBox="0 0 16 16" xmlns="http://www.w3.org/2000/svg"><path d="m1 2v2h14v-2zm0 3v9h8.0019531l.0039063-3.166016-.5566406.556641c-.4081844.425971-.9425819.653497-1.5371094.623047-.5372703-.027507-.9994427-.274024-1.3203125-.595703-.3216794-.322493-.5628788-.787285-.5898438-1.316407-.0295221-.5792934.1977218-1.0993569.6074219-1.5058589l-.0097656-.0097656c1.2359448-1.2405079 2.554384-2.5581213 3.5839844-3.5859375zm11.826172 0c.641769.6378699 1.406715 1.4065164 2.173828 2.1757812v-2.1757812zm.175781 5.830078-.003906 3.169922h2.001953v-2.015625c-.512737.0021-1.028686-.172783-1.429688-.583984z" fill="#fff"/><path d="m0 5v9.5c-.00038442.276301.22369855.500384.5.5h8.5v-.017578-.980469h-8.00195312v-9.001953zm5 0v4h-4v1h4v.982422.017578 3h1v-1.283203-.990235c-.1511174-.090257-.2913618-.191457-.4082031-.308593-.3216794-.322493-.5628788-.787286-.5898438-1.316407-.0295221-.5792937.1977218-1.0993569.6074219-1.5058589l-.0097656-.0097656c.1380374-.1385481.2595892-.2591955.4003906-.4003906v-3.1855469zm10.001953 0v2.1777344c.352027.3530153.666652.6656282.998047.9980468v-3.1757812zm.996094 6.712891c-.073245.042577-.138254.097497-.216797.130859-.248329.105482-.514407.139537-.78125.140625l.001953 2.017578h-2.001953v.980469.017578h2.5c.276301.000384.500384-.223699.5-.5z" fill="#808080"/><g fill="#4d82b8"><path d="m0 1v4h9.1835938c.0953593-.0951941.2429569-.2431448.3320312-.3320312l.0039062-.0039063.0019532-.0019531c.4099025-.402187.9618926-.6691594 1.5410156-.6582032.579123.0109565 1.116196.3039083 1.482422.7148438.078011.0773296.198255.1987594.28125.28125h3.173828v-4zm1 1h4v2h-4zm5 0h4v2h-4zm5 0h4v2h-4z"/><path d="m15.999635 9.9756974c.01179.4311716-.263692.8005516-.609406.9474006-.345715.146849-.802291.08821-1.103572-.220735l-2.283321-2.291344-.0059 6.575164c.0041.294233-.120959.580072-.318375.757921s-.442018.255896-.679721.255896c-.237705 0-.482308-.07805-.679723-.255896-.197416-.177849-.3224952-.463688-.318375-.757921l.0059-6.571257-2.2794131 2.283531c-.2045182.213432-.4970921.330105-.763711.316451-.2666189-.01365-.495794-.13405-.6640964-.302777-.1683023-.168728-.2852738-.39593-.2988438-.662206-.0135699-.2662736.1015516-.558717.3144688-.76378l-.0078.0059c1.3493566-1.354348 2.8640586-2.8685859 3.9142595-3.916571.523898-.5140368 1.141224-.4803366 1.576252.0078 1.065867 1.0559877 2.668209 2.6693444 3.900541 3.904861.185168.181347.293604.4286044.300796.6875624z"/></g></svg>

<svg viewBox="0 0 16 16" xmlns="http://www.w3.org/2000/svg">
  <path
     style="fill:#ffffff"
     d="M 1 2 L 1 4 L 15 4 L 15 2 L 1 2 z M 1 5 L 1 14 L 9.0019531 14 L 9.0058594 10.833984 L 8.4492188 11.390625 C 8.0410344 11.816596 7.5066369 12.044122 6.9121094 12.013672 C 6.3748391 11.986165 5.9126667 11.739648 5.5917969 11.417969 C 5.2701175 11.095476 5.0289181 10.630684 5.0019531 10.101562 C 4.972431 9.5222686 5.1996749 9.0022051 5.609375 8.5957031 L 5.5996094 8.5859375 C 6.8355542 7.3454296 8.1539934 6.0278162 9.1835938 5 L 1 5 z M 12.826172 5 C 13.467941 5.6378699 14.232887 6.4065164 15 7.1757812 L 15 5 L 12.826172 5 z M 13.001953 10.830078 L 12.998047 14 L 15 14 L 15 11.984375 C 14.487263 11.986475 13.971314 11.811592 13.570312 11.400391 L 13.001953 10.830078 z "
     />
  <path
     style="fill:#808080"
     d="M 0 5 L 0 14.5 C -0.00038442 14.776301 0.22369855 15.000384 0.5 15 L 9 15 L 9 14.982422 L 9 14.001953 L 0.99804688 14.001953 L 0.99804688 5 L 0 5 z M 5 5 L 5 9 L 1 9 L 1 10 L 5 10 L 5 10.982422 L 5 11 L 5 14 L 6 14 L 6 12.716797 L 6 11.726562 C 5.8488826 11.636305 5.7086382 11.535105 5.5917969 11.417969 C 5.2701175 11.095476 5.0289181 10.630683 5.0019531 10.101562 C 4.972431 9.5222683 5.1996749 9.0022051 5.609375 8.5957031 L 5.5996094 8.5859375 C 5.7376468 8.4473894 5.8591986 8.326742 6 8.1855469 L 6 5 L 5 5 z M 15.001953 5 L 15.001953 7.1777344 C 15.35398 7.5307497 15.668605 7.8433626 16 8.1757812 L 16 5 L 15.001953 5 z M 15.998047 11.712891 C 15.924802 11.755468 15.859793 11.810388 15.78125 11.84375 C 15.532921 11.949232 15.266843 11.983287 15 11.984375 L 15.001953 14.001953 L 13 14.001953 L 13 14.982422 L 13 15 L 15.5 15 C 15.776301 15.000384 16.000384 14.776301 16 14.5 L 15.998047 11.712891 z "
     />
  <path
     style="fill:#4d82b8"
     d="M 0 1 L 0 5 L 9.1835938 5 C 9.2789531 4.9048059 9.4265507 4.7568552 9.515625 4.6679688 L 9.5195312 4.6640625 L 9.5214844 4.6621094 C 9.9313869 4.2599224 10.483377 3.99295 11.0625 4.0039062 C 11.641623 4.0148627 12.178696 4.3078145 12.544922 4.71875 C 12.622933 4.7960796 12.743177 4.9175094 12.826172 5 L 16 5 L 16 1 L 0 1 z M 1 2 L 5 2 L 5 4 L 1 4 L 1 2 z M 6 2 L 10 2 L 10 4 L 6 4 L 6 2 z M 11 2 L 15 2 L 15 4 L 11 4 L 11 2 z "
     />
  <path
     style="fill:#4d82b8"
     d="m 15.999635,9.9756974 c 0.01179,0.4311716 -0.263692,0.8005516 -0.609406,0.9474006 -0.345715,0.146849 -0.802291,0.08821 -1.103572,-0.220735 l -2.283321,-2.291344 -0.0059,6.575164 c 0.0041,0.294233 -0.120959,0.580072 -0.318375,0.757921 C 11.481645,15.921953 11.237043,16 10.99934,16 10.761635,16 10.517032,15.92195 10.319617,15.744104 10.122201,15.566255 9.9971218,15.280416 10.001242,14.986183 l 0.0059,-6.571257 -2.2794131,2.283531 C 7.5232107,10.911889 7.2306368,11.028562 6.9640179,11.014908 6.697399,11.001258 6.4682239,10.880858 6.2999215,10.712131 6.1316192,10.543403 6.0146477,10.316201 6.0010777,10.049925 5.9875078,9.7836514 6.1026293,9.491208 6.3155465,9.286145 l -0.0078,0.0059 C 7.6571031,7.937697 9.1718051,6.4234591 10.222006,5.375474 c 0.523898,-0.5140368 1.141224,-0.4803366 1.576252,0.0078 1.065867,1.0559877 2.668209,2.6693444 3.900541,3.904861 0.185168,0.181347 0.293604,0.4286044 0.300796,0.6875624 z"
     />
</svg>
